Newaita-dark/apps/32/vokoscreen.svg

<svg height="32pt" viewBox="0 0 32 32" width="32pt" xmlns="http://www.w3.org/2000/svg" xmlns:xlink="http://www.w3.org/1999/xlink"><linearGradient id="a" gradientUnits="userSpaceOnUse" x1="15.876521" x2="15.876521" y1="28.033934" y2="29.35697787502"><stop offset="0" stop-opacity=".27451"/><stop offset="1" stop-opacity="0"/></linearGradient><linearGradient id="b"><stop offset="0" stop-opacity=".313725"/><stop offset=".222222" stop-opacity=".27451"/><stop offset="1" stop-opacity="0"/></linearGradient><radialGradient id="c" cx="450.90894" cy="189.57936" gradientTransform="matrix(.00000017 -.0781325 -.140638 -.0000001 53.453691 63.595333)" gradientUnits="userSpaceOnUse" r="21.166656" xlink:href="#b"/><radialGradient id="d" cx="450.90894" cy="189.57936" gradientTransform="matrix(-.00000017 .0781325 .140638 .0000001 -21.700659 -7.52748)" gradientUnits="userSpaceOnUse" r="21.166656" xlink:href="#b"/><radialGradient id="e" cx="450.90894" cy="189.57936" gradientTransform="matrix(-.00000017 -.0781325 .140638 -.0000001 -21.700659 63.595333)" gradientUnits="userSpaceOnUse" r="21.166656" xlink:href="#b"/><radialGradient id="f" cx="450.90894" cy="189.57936" gradientTransform="matrix(.00000017 .0781325 -.140638 .0000001 53.453689 -7.527481)" gradientUnits="userSpaceOnUse" r="21.166656" xlink:href="#b"/><linearGradient id="g"><stop offset="0" stop-color="#424242"/><stop offset="1" stop-color="#616161"/></linearGradient><linearGradient id="h" gradientTransform="matrix(.0753497 0 0 .217412 -5.854013 33.641349)" gradientUnits="userSpaceOnUse" x1="306.91666" x2="305.95456" xlink:href="#g" y1="-25.791676" y2="-135.32916"/><linearGradient id="i"><stop offset="0" stop-color="#f44336"/><stop offset="1" stop-color="#ef5350"/></linearGradient><linearGradient id="j" gradientUnits="userSpaceOnUse" x1="18.52256" x2="18.52256" xlink:href="#i" y1="28.0475437916" y2="4.23282246856"/><linearGradient id="k" gradientTransform="matrix(.5 0 0 .571428 -105.83347 106.33793)" gradientUnits="userSpaceOnUse" x1="444.5" x2="444.5" xlink:href="#g" y1="185.875" y2="148.83333"/><linearGradient id="l" gradientTransform="matrix(.5 0 0 .571428 -63.500116 106.33793)" gradientUnits="userSpaceOnUse" x1="444.5" x2="444.5" xlink:href="#g" y1="185.875" y2="148.83333"/><linearGradient id="m" gradientTransform="matrix(.5 0 0 .571428 -21.166803 106.33793)" gradientUnits="userSpaceOnUse" x1="444.5" x2="444.5" xlink:href="#g" y1="185.875" y2="148.83333"/><linearGradient id="n" gradientTransform="matrix(.5 0 0 .571428 169.3332 106.33793)" gradientUnits="userSpaceOnUse" x1="444.5" x2="444.5" xlink:href="#g" y1="185.875" y2="148.83333"/><linearGradient id="o" gradientUnits="userSpaceOnUse" x1="15.876524" x2="15.876524" xlink:href="#i" y1="28.033934" y2="4.219148"/><path d="m4.628906 28.035156h22.492188v1.320313h-22.492188zm0 0" fill="url(#a)"/><path d="m27.121094 28.035156h2.648437v-1.324218h-2.648437zm0 0" fill="url(#c)"/><path d="m4.628906 28.035156h-2.644531v1.320313h2.644531zm0 0" fill="url(#d)"/><path d="m4.628906 28.035156h-2.644531v-1.324218h2.644531zm0 0" fill="url(#e)"/><path d="m27.121094 28.035156h2.648437v1.320313h-2.648437zm0 0" fill="url(#f)"/><path d="m3.308594 4.21875h25.136718c.730469 0 1.324219.59375 1.324219 1.324219v21.167969c0 .730468-.59375 1.324218-1.324219 1.324218h-25.136718c-.730469 0-1.324219-.59375-1.324219-1.324218v-21.167969c0-.730469.59375-1.324219 1.324219-1.324219zm0 0" fill="url(#h)"/><path d="m3.308594 28.046875c-.734375 0-1.324219-.589844-1.324219-1.324219v-.34375c0 .734375.589844 1.324219 1.324219 1.324219h25.136718c.734376 0 1.324219-.589844 1.324219-1.324219v.34375c0 .734375-.589843 1.324219-1.324219 1.324219zm0 0" fill-opacity=".235294"/><path d="m6.613281 24.078125c-.730469 0-1.320312.589844-1.320312 1.324219v1.984375c0 .367187.292969.660156.660156.660156h19.847656c.363281 0 .660157-.292969.660157-.660156v-1.984375c0-.734375-.589844-1.324219-1.324219-1.324219zm0 0" fill="url(#j)"/><g stroke="#212121" stroke-linecap="round" stroke-width="3" transform="matrix(.062506 0 0 .062506 0 13.438783)"><path d="m116.426382 191.398691c5.811945 0 10.561491 4.749546 10.561491 10.561491 0 5.874439-4.749546 10.561492-10.561491 10.561492-5.874439 0-10.623986-4.687053-10.623986-10.561492 0-5.811945 4.749547-10.561491 10.623986-10.561491zm0 0" fill="url(#k)"/><path d="m158.734842 191.398691c5.874439 0 10.623985 4.749546 10.623985 10.561491 0 5.874439-4.749546 10.561492-10.623985 10.561492-5.811945 0-10.561492-4.687053-10.561492-10.561492 0-5.811945 4.749547-10.561491 10.561492-10.561491zm0 0" fill="url(#l)"/><path d="m201.105795 191.398691c5.811945 0 10.561492 4.749546 10.561492 10.561491 0 5.874439-4.749547 10.561492-10.561492 10.561492-5.874439 0-10.623985-4.687053-10.623985-10.561492 0-5.811945 4.749546-10.561491 10.623985-10.561491zm0 0" fill="url(#m)"/><path d="m391.587605 191.398691c5.811945 0 10.561492 4.749546 10.561492 10.561491 0 5.874439-4.749547 10.561492-10.561492 10.561492-5.874439 0-10.561491-4.687053-10.561491-10.561492 0-5.811945 4.687052-10.561491 10.561491-10.561491zm0 0" fill="url(#n)"/></g><path d="m6.613281 24.078125c-.730469 0-1.320312.589844-1.320312 1.324219v.316406c0-.734375.589843-1.324219 1.320312-1.324219h18.523438c.734375 0 1.324219.589844 1.324219 1.324219v-.316406c0-.734375-.589844-1.324219-1.324219-1.324219zm0 0" fill="#fff" fill-opacity=".392157"/><path d="m5.292969 27.054688v.332031c0 .367187.292969.660156.660156.660156h19.847656c.363281 0 .660157-.292969.660157-.660156v-.332031c0 .367187-.296876.664062-.660157.664062h-19.847656c-.367187 0-.660156-.296875-.660156-.664062zm0 0" fill-opacity=".235294"/><path d="m6.613281 23.984375c-.78125 0-1.414062.632813-1.414062 1.417969v1.984375c0 .417969.335937.753906.753906.753906h19.847656c.414063 0 .753907-.335937.753907-.753906v-1.984375c0-.785156-.632813-1.417969-1.417969-1.417969zm0 .1875h18.523438c.683593 0 1.230469.546875 1.230469 1.230469v1.984375c0 .316406-.25.566406-.566407.566406h-19.847656c-.316406 0-.566406-.25-.566406-.566406v-1.984375c0-.683594.546875-1.230469 1.226562-1.230469zm0 0" fill="#212121"/><path d="m3.308594 4.296875c-.734375 0-1.324219.589844-1.324219 1.320313v.179687c0-.730469.589844-1.320313 1.324219-1.320313h25.136718c.734376 0 1.324219.589844 1.324219 1.320313v-.179687c0-.730469-.589843-1.320313-1.324219-1.320313zm0 0" fill="#fff" fill-opacity=".392157"/><path d="m3.308594 4.125c-.785156 0-1.417969.632812-1.417969 1.417969v21.167969c0 .785156.632813 1.417968 1.417969 1.417968h25.136718c.785157 0 1.417969-.632812 1.417969-1.417968v-21.167969c0-.785157-.632812-1.417969-1.417969-1.417969zm0 .1875h25.136718c.683594 0 1.230469.546875 1.230469 1.230469v21.167969c0 .683593-.546875 1.230468-1.230469 1.230468h-25.136718c-.683594 0-1.230469-.546875-1.230469-1.230468v-21.167969c0-.683594.546875-1.230469 1.230469-1.230469zm0 0" fill="#212121"/><path d="m15.875 9.511719c2.558594 0 4.632812 2.074219 4.632812 4.628906 0 2.558594-2.074218 4.632813-4.632812 4.632813-2.554688 0-4.628906-2.074219-4.628906-4.632813 0-2.554687 2.074218-4.628906 4.628906-4.628906zm0 0" fill="url(#o)"/><path d="m15.875 9.511719c-2.5625 0-4.628906 2.066406-4.628906 4.628906v.125c.066406-2.507813 2.105468-4.507813 4.628906-4.507813 2.527344 0 4.566406 2 4.628906 4.507813.003906-.039063.003906-.082031.003906-.125 0-2.5625-2.066406-4.628906-4.632812-4.628906zm0 0" fill="#fff" fill-opacity=".392157"/><path d="m11.25 14.40625c-.003906.054688-.003906.109375-.003906.164062 0 2.566407 2.066406 4.628907 4.628906 4.628907 2.566406 0 4.632812-2.0625 4.632812-4.628907 0-.054687-.003906-.109374-.003906-.164062-.085937 2.488281-2.117187 4.464844-4.628906 4.464844-2.507812 0-4.539062-1.976563-4.625-4.464844zm0 0" fill-opacity=".235294"/><path d="m253.975747-62.827032c40.933591 0 74.117922 33.184331 74.117922 74.055428 0 40.933591-33.184331 74.117922-74.117922 74.117922-40.871097 0-74.055429-33.184331-74.055429-74.117922 0-40.871097 33.184332-74.055428 74.055429-74.055428zm0 0" fill="none" stroke="#212121" stroke-linecap="round" stroke-linejoin="round" stroke-width="3" transform="matrix(.062506 0 0 .062506 0 13.438783)"/></svg>

<?xml version="1.0" encoding="UTF-8"?>
<svg xmlns="http://www.w3.org/2000/svg" xmlns:xlink="http://www.w3.org/1999/xlink" width="32pt" height="32pt" viewBox="0 0 32 32" version="1.1">
<defs>
<linearGradient id="linear0" gradientUnits="userSpaceOnUse" x1="254" y1="233.5" x2="254" y2="254.66667" gradientTransform="matrix(0.062506,0,0,0.062506,-0.00000250024,13.438783)">
<stop offset="0" style="stop-color:rgb(0%,0%,0%);stop-opacity:0.27451;"/>
<stop offset="1" style="stop-color:rgb(0%,0%,0%);stop-opacity:0;"/>
</linearGradient>
<radialGradient id="radial0" gradientUnits="userSpaceOnUse" cx="450.90894" cy="189.57936" fx="450.90894" fy="189.57936" r="21.166656" gradientTransform="matrix(0.00000017417,-0.0781325,-0.140638,-0.000000101539,53.453691,63.595333)">
<stop offset="0" style="stop-color:rgb(0%,0%,0%);stop-opacity:0.313725;"/>
<stop offset="0.222222" style="stop-color:rgb(0%,0%,0%);stop-opacity:0.27451;"/>
<stop offset="1" style="stop-color:rgb(0%,0%,0%);stop-opacity:0;"/>
</radialGradient>
<radialGradient id="radial1" gradientUnits="userSpaceOnUse" cx="450.90894" cy="189.57936" fx="450.90894" fy="189.57936" r="21.166656" gradientTransform="matrix(-0.00000017417,0.0781325,0.140638,0.000000101539,-21.700659,-7.52748)">
<stop offset="0" style="stop-color:rgb(0%,0%,0%);stop-opacity:0.313725;"/>
<stop offset="0.222222" style="stop-color:rgb(0%,0%,0%);stop-opacity:0.27451;"/>
<stop offset="1" style="stop-color:rgb(0%,0%,0%);stop-opacity:0;"/>
</radialGradient>
<radialGradient id="radial2" gradientUnits="userSpaceOnUse" cx="450.90894" cy="189.57936" fx="450.90894" fy="189.57936" r="21.166656" gradientTransform="matrix(-0.00000017417,-0.0781325,0.140638,-0.000000101539,-21.700659,63.595333)">
<stop offset="0" style="stop-color:rgb(0%,0%,0%);stop-opacity:0.313725;"/>
<stop offset="0.222222" style="stop-color:rgb(0%,0%,0%);stop-opacity:0.27451;"/>
<stop offset="1" style="stop-color:rgb(0%,0%,0%);stop-opacity:0;"/>
</radialGradient>
<radialGradient id="radial3" gradientUnits="userSpaceOnUse" cx="450.90894" cy="189.57936" fx="450.90894" fy="189.57936" r="21.166656" gradientTransform="matrix(0.00000017417,0.0781325,-0.140638,0.000000101539,53.453689,-7.527481)">
<stop offset="0" style="stop-color:rgb(0%,0%,0%);stop-opacity:0.313725;"/>
<stop offset="0.222222" style="stop-color:rgb(0%,0%,0%);stop-opacity:0.27451;"/>
<stop offset="1" style="stop-color:rgb(0%,0%,0%);stop-opacity:0;"/>
</radialGradient>
<linearGradient id="linear1" gradientUnits="userSpaceOnUse" x1="306.91666" y1="-25.791676" x2="305.95456" y2="-135.32916" gradientTransform="matrix(0.0753497,0,0,0.217412,-5.854013,33.641349)">
<stop offset="0" style="stop-color:rgb(25.882353%,25.882353%,25.882353%);stop-opacity:1;"/>
<stop offset="1" style="stop-color:rgb(38.039216%,38.039216%,38.039216%);stop-opacity:1;"/>
</linearGradient>
<linearGradient id="linear2" gradientUnits="userSpaceOnUse" x1="1120" y1="1695.1182" x2="1120" y2="255.11812" gradientTransform="matrix(0.016538,0,0,0.016538,0,0.0136788)">
<stop offset="0" style="stop-color:rgb(95.686275%,26.27451%,21.176471%);stop-opacity:1;"/>
<stop offset="1" style="stop-color:rgb(93.72549%,32.54902%,31.372549%);stop-opacity:1;"/>
</linearGradient>
<linearGradient id="linear3" gradientUnits="userSpaceOnUse" x1="444.5" y1="185.875" x2="444.5" y2="148.83333" gradientTransform="matrix(0.5,0,0,0.571428,-105.83347,106.33793)">
<stop offset="0" style="stop-color:rgb(25.882353%,25.882353%,25.882353%);stop-opacity:1;"/>
<stop offset="1" style="stop-color:rgb(38.039216%,38.039216%,38.039216%);stop-opacity:1;"/>
</linearGradient>
<linearGradient id="linear4" gradientUnits="userSpaceOnUse" x1="444.5" y1="185.875" x2="444.5" y2="148.83333" gradientTransform="matrix(0.5,0,0,0.571428,-63.500116,106.33793)">
<stop offset="0" style="stop-color:rgb(25.882353%,25.882353%,25.882353%);stop-opacity:1;"/>
<stop offset="1" style="stop-color:rgb(38.039216%,38.039216%,38.039216%);stop-opacity:1;"/>
</linearGradient>
<linearGradient id="linear5" gradientUnits="userSpaceOnUse" x1="444.5" y1="185.875" x2="444.5" y2="148.83333" gradientTransform="matrix(0.5,0,0,0.571428,-21.166803,106.33793)">
<stop offset="0" style="stop-color:rgb(25.882353%,25.882353%,25.882353%);stop-opacity:1;"/>
<stop offset="1" style="stop-color:rgb(38.039216%,38.039216%,38.039216%);stop-opacity:1;"/>
</linearGradient>
<linearGradient id="linear6" gradientUnits="userSpaceOnUse" x1="444.5" y1="185.875" x2="444.5" y2="148.83333" gradientTransform="matrix(0.5,0,0,0.571428,169.3332,106.33793)">
<stop offset="0" style="stop-color:rgb(25.882353%,25.882353%,25.882353%);stop-opacity:1;"/>
<stop offset="1" style="stop-color:rgb(38.039216%,38.039216%,38.039216%);stop-opacity:1;"/>
</linearGradient>
<linearGradient id="linear7" gradientUnits="userSpaceOnUse" x1="254" y1="233.5" x2="254" y2="-147.5" gradientTransform="matrix(0.062506,0,0,0.062506,0,13.438783)">
<stop offset="0" style="stop-color:rgb(95.686275%,26.27451%,21.176471%);stop-opacity:1;"/>
<stop offset="1" style="stop-color:rgb(93.72549%,32.54902%,31.372549%);stop-opacity:1;"/>
</linearGradient>
</defs>
<g id="surface1">
<path style=" stroke:none;fill-rule:nonzero;fill:url(#linear0);" d="M 4.628906 28.035156 L 27.121094 28.035156 L 27.121094 29.355469 L 4.628906 29.355469 Z M 4.628906 28.035156 "/>
<path style=" stroke:none;fill-rule:nonzero;fill:url(#radial0);" d="M 27.121094 28.035156 L 29.769531 28.035156 L 29.769531 26.710938 L 27.121094 26.710938 Z M 27.121094 28.035156 "/>
<path style=" stroke:none;fill-rule:nonzero;fill:url(#radial1);" d="M 4.628906 28.035156 L 1.984375 28.035156 L 1.984375 29.355469 L 4.628906 29.355469 Z M 4.628906 28.035156 "/>
<path style=" stroke:none;fill-rule:nonzero;fill:url(#radial2);" d="M 4.628906 28.035156 L 1.984375 28.035156 L 1.984375 26.710938 L 4.628906 26.710938 Z M 4.628906 28.035156 "/>
<path style=" stroke:none;fill-rule:nonzero;fill:url(#radial3);" d="M 27.121094 28.035156 L 29.769531 28.035156 L 29.769531 29.355469 L 27.121094 29.355469 Z M 27.121094 28.035156 "/>
<path style=" stroke:none;fill-rule:nonzero;fill:url(#linear1);" d="M 3.308594 4.21875 L 28.445312 4.21875 C 29.175781 4.21875 29.769531 4.8125 29.769531 5.542969 L 29.769531 26.710938 C 29.769531 27.441406 29.175781 28.035156 28.445312 28.035156 L 3.308594 28.035156 C 2.578125 28.035156 1.984375 27.441406 1.984375 26.710938 L 1.984375 5.542969 C 1.984375 4.8125 2.578125 4.21875 3.308594 4.21875 Z M 3.308594 4.21875 "/>
<path style=" stroke:none;fill-rule:nonzero;fill:rgb(0%,0%,0%);fill-opacity:0.235294;" d="M 3.308594 28.046875 C 2.574219 28.046875 1.984375 27.457031 1.984375 26.722656 L 1.984375 26.378906 C 1.984375 27.113281 2.574219 27.703125 3.308594 27.703125 L 28.445312 27.703125 C 29.179688 27.703125 29.769531 27.113281 29.769531 26.378906 L 29.769531 26.722656 C 29.769531 27.457031 29.179688 28.046875 28.445312 28.046875 Z M 3.308594 28.046875 "/>
<path style=" stroke:none;fill-rule:nonzero;fill:url(#linear2);" d="M 6.613281 24.078125 C 5.882812 24.078125 5.292969 24.667969 5.292969 25.402344 L 5.292969 27.386719 C 5.292969 27.753906 5.585938 28.046875 5.953125 28.046875 L 25.800781 28.046875 C 26.164062 28.046875 26.460938 27.753906 26.460938 27.386719 L 26.460938 25.402344 C 26.460938 24.667969 25.871094 24.078125 25.136719 24.078125 Z M 6.613281 24.078125 "/>
<path style="fill-rule:nonzero;fill:url(#linear3);stroke-width:3;stroke-linecap:round;stroke-linejoin:miter;stroke:rgb(12.941176%,12.941176%,12.941176%);stroke-opacity:1;stroke-miterlimit:4;" d="M 116.426382 191.398691 C 122.238327 191.398691 126.987873 196.148237 126.987873 201.960182 C 126.987873 207.834621 122.238327 212.521674 116.426382 212.521674 C 110.551943 212.521674 105.802396 207.834621 105.802396 201.960182 C 105.802396 196.148237 110.551943 191.398691 116.426382 191.398691 Z M 116.426382 191.398691 " transform="matrix(0.062506,0,0,0.062506,0,13.438783)"/>
<path style="fill-rule:nonzero;fill:url(#linear4);stroke-width:3;stroke-linecap:round;stroke-linejoin:miter;stroke:rgb(12.941176%,12.941176%,12.941176%);stroke-opacity:1;stroke-miterlimit:4;" d="M 158.734842 191.398691 C 164.609281 191.398691 169.358827 196.148237 169.358827 201.960182 C 169.358827 207.834621 164.609281 212.521674 158.734842 212.521674 C 152.922897 212.521674 148.17335 207.834621 148.17335 201.960182 C 148.17335 196.148237 152.922897 191.398691 158.734842 191.398691 Z M 158.734842 191.398691 " transform="matrix(0.062506,0,0,0.062506,0,13.438783)"/>
<path style="fill-rule:nonzero;fill:url(#linear5);stroke-width:3;stroke-linecap:round;stroke-linejoin:miter;stroke:rgb(12.941176%,12.941176%,12.941176%);stroke-opacity:1;stroke-miterlimit:4;" d="M 201.105795 191.398691 C 206.91774 191.398691 211.667287 196.148237 211.667287 201.960182 C 211.667287 207.834621 206.91774 212.521674 201.105795 212.521674 C 195.231356 212.521674 190.48181 207.834621 190.48181 201.960182 C 190.48181 196.148237 195.231356 191.398691 201.105795 191.398691 Z M 201.105795 191.398691 " transform="matrix(0.062506,0,0,0.062506,0,13.438783)"/>
<path style="fill-rule:nonzero;fill:url(#linear6);stroke-width:3;stroke-linecap:round;stroke-linejoin:miter;stroke:rgb(12.941176%,12.941176%,12.941176%);stroke-opacity:1;stroke-miterlimit:4;" d="M 391.587605 191.398691 C 397.39955 191.398691 402.149097 196.148237 402.149097 201.960182 C 402.149097 207.834621 397.39955 212.521674 391.587605 212.521674 C 385.713166 212.521674 381.026114 207.834621 381.026114 201.960182 C 381.026114 196.148237 385.713166 191.398691 391.587605 191.398691 Z M 391.587605 191.398691 " transform="matrix(0.062506,0,0,0.062506,0,13.438783)"/>
<path style=" stroke:none;fill-rule:nonzero;fill:rgb(100%,100%,100%);fill-opacity:0.392157;" d="M 6.613281 24.078125 C 5.882812 24.078125 5.292969 24.667969 5.292969 25.402344 L 5.292969 25.71875 C 5.292969 24.984375 5.882812 24.394531 6.613281 24.394531 L 25.136719 24.394531 C 25.871094 24.394531 26.460938 24.984375 26.460938 25.71875 L 26.460938 25.402344 C 26.460938 24.667969 25.871094 24.078125 25.136719 24.078125 Z M 6.613281 24.078125 "/>
<path style=" stroke:none;fill-rule:nonzero;fill:rgb(0%,0%,0%);fill-opacity:0.235294;" d="M 5.292969 27.054688 L 5.292969 27.386719 C 5.292969 27.753906 5.585938 28.046875 5.953125 28.046875 L 25.800781 28.046875 C 26.164062 28.046875 26.460938 27.753906 26.460938 27.386719 L 26.460938 27.054688 C 26.460938 27.421875 26.164062 27.71875 25.800781 27.71875 L 5.953125 27.71875 C 5.585938 27.71875 5.292969 27.421875 5.292969 27.054688 Z M 5.292969 27.054688 "/>
<path style=" stroke:none;fill-rule:nonzero;fill:rgb(12.941176%,12.941176%,12.941176%);fill-opacity:1;" d="M 6.613281 23.984375 C 5.832031 23.984375 5.199219 24.617188 5.199219 25.402344 L 5.199219 27.386719 C 5.199219 27.804688 5.535156 28.140625 5.953125 28.140625 L 25.800781 28.140625 C 26.214844 28.140625 26.554688 27.804688 26.554688 27.386719 L 26.554688 25.402344 C 26.554688 24.617188 25.921875 23.984375 25.136719 23.984375 Z M 6.613281 24.171875 L 25.136719 24.171875 C 25.820312 24.171875 26.367188 24.71875 26.367188 25.402344 L 26.367188 27.386719 C 26.367188 27.703125 26.117188 27.953125 25.800781 27.953125 L 5.953125 27.953125 C 5.636719 27.953125 5.386719 27.703125 5.386719 27.386719 L 5.386719 25.402344 C 5.386719 24.71875 5.933594 24.171875 6.613281 24.171875 Z M 6.613281 24.171875 "/>
<path style=" stroke:none;fill-rule:nonzero;fill:rgb(100%,100%,100%);fill-opacity:0.392157;" d="M 3.308594 4.296875 C 2.574219 4.296875 1.984375 4.886719 1.984375 5.617188 L 1.984375 5.796875 C 1.984375 5.066406 2.574219 4.476562 3.308594 4.476562 L 28.445312 4.476562 C 29.179688 4.476562 29.769531 5.066406 29.769531 5.796875 L 29.769531 5.617188 C 29.769531 4.886719 29.179688 4.296875 28.445312 4.296875 Z M 3.308594 4.296875 "/>
<path style=" stroke:none;fill-rule:nonzero;fill:rgb(12.941176%,12.941176%,12.941176%);fill-opacity:1;" d="M 3.308594 4.125 C 2.523438 4.125 1.890625 4.757812 1.890625 5.542969 L 1.890625 26.710938 C 1.890625 27.496094 2.523438 28.128906 3.308594 28.128906 L 28.445312 28.128906 C 29.230469 28.128906 29.863281 27.496094 29.863281 26.710938 L 29.863281 5.542969 C 29.863281 4.757812 29.230469 4.125 28.445312 4.125 Z M 3.308594 4.3125 L 28.445312 4.3125 C 29.128906 4.3125 29.675781 4.859375 29.675781 5.542969 L 29.675781 26.710938 C 29.675781 27.394531 29.128906 27.941406 28.445312 27.941406 L 3.308594 27.941406 C 2.625 27.941406 2.078125 27.394531 2.078125 26.710938 L 2.078125 5.542969 C 2.078125 4.859375 2.625 4.3125 3.308594 4.3125 Z M 3.308594 4.3125 "/>
<path style=" stroke:none;fill-rule:nonzero;fill:url(#linear7);" d="M 15.875 9.511719 C 18.433594 9.511719 20.507812 11.585938 20.507812 14.140625 C 20.507812 16.699219 18.433594 18.773438 15.875 18.773438 C 13.320312 18.773438 11.246094 16.699219 11.246094 14.140625 C 11.246094 11.585938 13.320312 9.511719 15.875 9.511719 Z M 15.875 9.511719 "/>
<path style=" stroke:none;fill-rule:nonzero;fill:rgb(100%,100%,100%);fill-opacity:0.392157;" d="M 15.875 9.511719 C 13.3125 9.511719 11.246094 11.578125 11.246094 14.140625 C 11.246094 14.183594 11.246094 14.226562 11.246094 14.265625 C 11.3125 11.757812 13.351562 9.757812 15.875 9.757812 C 18.402344 9.757812 20.441406 11.757812 20.503906 14.265625 C 20.507812 14.226562 20.507812 14.183594 20.507812 14.140625 C 20.507812 11.578125 18.441406 9.511719 15.875 9.511719 Z M 15.875 9.511719 "/>
<path style=" stroke:none;fill-rule:nonzero;fill:rgb(0%,0%,0%);fill-opacity:0.235294;" d="M 11.25 14.40625 C 11.246094 14.460938 11.246094 14.515625 11.246094 14.570312 C 11.246094 17.136719 13.3125 19.199219 15.875 19.199219 C 18.441406 19.199219 20.507812 17.136719 20.507812 14.570312 C 20.507812 14.515625 20.503906 14.460938 20.503906 14.40625 C 20.417969 16.894531 18.386719 18.871094 15.875 18.871094 C 13.367188 18.871094 11.335938 16.894531 11.25 14.40625 Z M 11.25 14.40625 "/>
<path style="fill:none;stroke-width:3;stroke-linecap:round;stroke-linejoin:round;stroke:rgb(12.941176%,12.941176%,12.941176%);stroke-opacity:1;stroke-miterlimit:4;" d="M 253.975747 -62.827032 C 294.909338 -62.827032 328.093669 -29.642701 328.093669 11.228396 C 328.093669 52.161987 294.909338 85.346318 253.975747 85.346318 C 213.10465 85.346318 179.920318 52.161987 179.920318 11.228396 C 179.920318 -29.642701 213.10465 -62.827032 253.975747 -62.827032 Z M 253.975747 -62.827032 " transform="matrix(0.062506,0,0,0.062506,0,13.438783)"/>
</g>
</svg>
